public/cloud-icons/azure/storage/data-box-edge.svg

<?xml version="1.0" encoding="UTF-8" standalone="no"?>
<!-- Generated by Microsoft Visio, SVG Export Data Box Edge.svg Page-1 -->

<svg
   xmlns:dc="http://purl.org/dc/elements/1.1/"
   xmlns:cc="http://creativecommons.org/ns#"
   xmlns:rdf="http://www.w3.org/1999/02/22-rdf-syntax-ns#"
   xmlns:svg="http://www.w3.org/2000/svg"
   xmlns="http://www.w3.org/2000/svg"
   xmlns:sodipodi="http://sodipodi.sourceforge.net/DTD/sodipodi-0.dtd"
   xmlns:inkscape="http://www.inkscape.org/namespaces/inkscape"
   width="0.78734231in"
   height="0.55130297in"
   viewBox="0 0 56.688705 39.693861"
   xml:space="preserve"
   class="st4"
   version="1.1"
   id="svg32"
   sodipodi:docname="Data Box Edge.svg"
   style="font-size:12px;overflow:visible;color-interpolation-filters:sRGB;fill:none;fill-rule:evenodd;stroke-linecap:square;stroke-miterlimit:3"
   inkscape:version="0.92.5 (2060ec1f9f, 2020-04-08)"><metadata
   id="metadata36"><rdf:RDF><cc:Work
       rdf:about=""><dc:format>image/svg+xml</dc:format><dc:type
         rdf:resource="http://purl.org/dc/dcmitype/StillImage" /></cc:Work></rdf:RDF></metadata><sodipodi:namedview
   pagecolor="#ffffff"
   bordercolor="#666666"
   borderopacity="1"
   objecttolerance="10"
   gridtolerance="10"
   guidetolerance="10"
   inkscape:pageopacity="0"
   inkscape:pageshadow="2"
   inkscape:window-width="640"
   inkscape:window-height="480"
   id="namedview34"
   showgrid="false"
   inkscape:zoom="1.7326971"
   inkscape:cx="37.795797"
   inkscape:cy="22.744615"
   inkscape:window-x="0"
   inkscape:window-y="0"
   inkscape:window-maximized="0"
   inkscape:current-layer="svg32" />
	<style
   type="text/css"
   id="style2">
	<![CDATA[
		.st1 {fill:url(#grad0-5);stroke:none;stroke-linecap:butt;stroke-width:28.4446}
		.st2 {fill:#50e6ff;stroke:none;stroke-linecap:butt;stroke-width:28.4446}
		.st3 {fill:#ffffff;stroke:none;stroke-linecap:butt;stroke-width:28.4446}
		.st4 {fill:none;fill-rule:evenodd;font-size:12px;overflow:visible;stroke-linecap:square;stroke-miterlimit:3}
	]]>
	</style>

	<defs
   id="Patterns_And_Gradients">
		<linearGradient
   id="grad0-5"
   x1="0"
   y1="78.717752"
   x2="44.052292"
   y2="78.717752"
   gradientTransform="scale(1.2017536,0.83211734)"
   gradientUnits="userSpaceOnUse">
			<stop
   offset="0"
   stop-color="#0078d4"
   stop-opacity="1"
   id="stop4" />
			<stop
   offset="0.82"
   stop-color="#5ea0ef"
   stop-opacity="1"
   id="stop6" />
		</linearGradient>
	</defs>
	<g
   id="g30"
   transform="translate(-28.444624,-28.441117)">
		<title
   id="title10">Page-1</title>
		<g
   id="group21715-1"
   transform="translate(28.4453,-34.0157)">
			<title
   id="title12">Data Box Edge.21715</title>
			<g
   id="shape21716-2"
   transform="translate(3.74803,-3.04559)">
				<title
   id="title14">path11</title>
				<path
   d="M 52.94,90.68 A 11.874,11.5979 -180 0 0 42.61,79.51 14.9606,14.6127 -180 0 0 27.18,65.51 15.4016,15.0434 -180 0 0 12.41,75.3 14.1102,13.7821 -180 0 0 0,88.65 a 14.3937,14.059 -180 0 0 14.9,13.5 h 1.32 24.13 0.66 A 12,11.7209 -180 0 0 52.94,90.68 Z"
   class="st1"
   id="path16"
   inkscape:connector-curvature="0"
   style="fill:url(#grad0-5);stroke:none;stroke-width:28.44459915;stroke-linecap:butt" />
			</g>
			<g
   id="shape21717-6">
				<title
   id="title19">path13</title>
				<path
   d="M 0,90.49 A 11.8425,11.5671 0 0 1 11.97,78.8 11.874,11.5979 0 0 1 23.94,90.49 v 11.66 H 11.97 A 11.8425,11.5671 0 0 1 0,90.49 Z"
   class="st2"
   id="path21"
   inkscape:connector-curvature="0"
   style="fill:#50e6ff;stroke:none;stroke-width:28.44459915;stroke-linecap:butt" />
			</g>
			<g
   id="shape21718-8"
   transform="translate(4.18898,-4.09156)">
				<title
   id="title24">path15</title>
				<path
   d="m 15.24,95.35 v -1.72 l -1.79,-0.61 -0.44,-1.17 0.88,-1.82 V 89.85 L 13.32,89.29 12.66,88.56 H 12.41 L 10.65,89.48 9.45,89.14 8.66,87.2 H 6.93 l -0.6,1.76 -1.32,0.52 -2.05,-0.96 -1.23,1.2 v 0.22 L 2.65,91.66 2.11,92.95 0,93.72 v 1.73 h 0.25 l 1.86,0.61 0.5,1.17 -0.94,2 1.23,1.23 h 0.25 l 1.73,-0.86 1.23,0.49 0.76,2.06 h 1.76 v -0.24 l 0.6,-1.85 1.2,-0.49 2.07,0.95 1.23,-1.2 v -0.24 l -0.88,-1.73 0.35,-1.2 z m -7.4,1.6 a 2.48819,2.43032 0 0 1 0,-4.83 2.45669,2.39956 0 0 1 2.49,2.4 2.45669,2.39956 0 0 1 -2.49,2.43 z"
   class="st3"
   id="path26"
   inkscape:connector-curvature="0"
   style="fill:#ffffff;stroke:none;stroke-width:28.44459915;stroke-linecap:butt" />
			</g>
		</g>
	</g>
</svg>

<svg xmlns="http://www.w3.org/2000/svg" xml:space="preserve" width="75.585" height="52.925" style="font-size:12px;overflow:visible;color-interpolation-filters:sRGB;fill-rule:evenodd;stroke-linecap:square;stroke-miterlimit:3" viewBox="0 0 56.689 39.694"><defs><linearGradient id="a" x1="0" x2="44.052" y1="78.718" y2="78.718" gradientTransform="scale(1.20175 .83212)" gradientUnits="userSpaceOnUse"><stop offset="0" stop-color="#0078d4"/><stop offset=".82" stop-color="#5ea0ef"/></linearGradient></defs><g transform="translate(-28.445 -28.441)"><title>Page-1</title><g transform="translate(28.445 -34.016)"><title>Data Box Edge.21715</title><g transform="translate(3.748 -3.046)"><title>path11</title><path d="M52.94 90.68a11.874 11.598-180 0 0-10.33-11.17 14.96 14.613-180 0 0-15.43-14 15.402 15.043-180 0 0-14.77 9.79A14.11 13.782-180 0 0 0 88.65a14.394 14.059-180 0 0 14.9 13.5h26.11a12 11.72-180 0 0 11.93-11.47" style="fill:url(#a);stroke:none;stroke-width:28.44459915;stroke-linecap:butt"/></g><title>path13</title><path d="M0 90.49A11.843 11.567 0 0 1 11.97 78.8a11.874 11.598 0 0 1 11.97 11.69v11.66H11.97A11.843 11.567 0 0 1 0 90.49" style="fill:#50e6ff;stroke:none;stroke-width:28.44459915;stroke-linecap:butt"/><g transform="translate(4.189 -4.092)"><title>path15</title><path d="M15.24 95.35v-1.72l-1.79-.61-.44-1.17.88-1.82v-.18l-.57-.56-.66-.73h-.25l-1.76.92-1.2-.34-.79-1.94H6.93l-.6 1.76-1.32.52-2.05-.96-1.23 1.2v.22l.92 1.72-.54 1.29-2.11.77v1.73h.25l1.86.61.5 1.17-.94 2 1.23 1.23h.25l1.73-.86 1.23.49.76 2.06h1.76v-.24l.6-1.85 1.2-.49 2.07.95 1.23-1.2v-.24l-.88-1.73.35-1.2zm-7.4 1.6a2.488 2.43 0 0 1 0-4.83 2.457 2.4 0 0 1 2.49 2.4 2.457 2.4 0 0 1-2.49 2.43" style="fill:#fff;stroke:none;stroke-width:28.44459915;stroke-linecap:butt"/></g></g></g></svg>
